src/img/qiwi-icon.svg

<svg width="20" height="20" viewBox="0 0 20 20" fill="none" xmlns="http://www.w3.org/2000/svg">
<g clip-path="url(#clip0_4_174)">
<g clip-path="url(#clip1_4_174)">
<path d="M16.4119 13.4559C16.472 13.8435 16.3451 14.0076 16.2168 14.0076C16.0886 14.0076 15.9029 13.85 15.6958 13.5373C15.4887 13.2245 15.4179 12.8769 15.5181 12.6986C15.5559 12.6368 15.6168 12.5915 15.6882 12.572C15.7596 12.5525 15.836 12.5604 15.9015 12.5939C16.2422 12.718 16.3758 13.2233 16.4119 13.4559ZM14.5242 14.3061C14.9343 14.6408 15.0586 15.0389 14.8422 15.3193C14.7762 15.3977 14.6922 15.46 14.5969 15.5013C14.5015 15.5426 14.3975 15.5617 14.2931 15.557C14.0643 15.5574 13.8425 15.4801 13.6665 15.3386C13.2952 15.0246 13.1856 14.5142 13.4288 14.2247C13.4825 14.1653 13.5495 14.1186 13.6248 14.0881C13.7 14.0577 13.7815 14.0443 13.8629 14.049C14.1077 14.0569 14.3419 14.1479 14.5242 14.3061ZM13.8402 17.5367C15.6023 17.5367 17.514 18.1208 19.6314 19.9351C19.8425 20.1161 20.1244 19.8912 19.94 19.6651C17.86 17.1258 15.9323 16.6412 14.0179 16.2329C11.672 15.7315 10.4644 14.4535 9.61872 13.0514C9.45173 12.7723 9.37558 12.8214 9.36089 13.1806C9.34685 13.7131 9.38847 14.2456 9.48513 14.7701C9.39028 14.7701 9.29409 14.7701 9.19924 14.7701C7.99705 14.7701 6.82185 14.4252 5.82226 13.7792C4.82267 13.1331 4.04358 12.2148 3.58352 11.1404C3.12346 10.0661 3.00308 8.88385 3.23762 7.7433C3.47216 6.60275 4.05107 5.55509 4.90115 4.7328C5.75124 3.91051 6.83431 3.35053 8.0134 3.12366C9.1925 2.89679 10.4147 3.01322 11.5254 3.45824C12.636 3.90326 13.5854 4.65688 14.2533 5.62379C14.9212 6.5907 15.2777 7.72748 15.2777 8.89037C15.2783 9.11877 15.2653 9.347 15.2389 9.57397C14.5986 9.49597 13.9514 9.48427 13.3085 9.53908C13.0774 9.55846 13.1108 9.6683 13.2845 9.69285C15.2883 10.043 16.675 11.2435 16.9903 13.4339C16.9914 13.445 16.9962 13.4555 17.0038 13.4638C17.0114 13.4721 17.0216 13.478 17.0329 13.4804C17.0441 13.4828 17.0559 13.4818 17.0665 13.4774C17.077 13.473 17.0859 13.4654 17.0918 13.4559C18.1342 11.7703 18.5706 9.79838 18.3329 7.84774C18.0952 5.89709 17.1968 4.07738 15.7778 2.67245C14.3588 1.26752 12.499 0.356356 10.4885 0.0810911C8.47805 -0.194174 6.4299 0.181935 4.66357 1.15075C2.89723 2.11957 1.51203 3.62662 0.724023 5.43683C-0.063981 7.24704 -0.210478 9.25863 0.307383 11.1578C0.825243 13.057 1.97834 14.737 3.58682 15.9358C5.1953 17.1346 7.16871 17.7848 9.19924 17.7849C10.5418 17.7887 11.8791 17.5355 13.8402 17.5355V17.5367Z" fill="#3E9CDC"/>
</g>
</g>
<defs>
<clipPath id="clip0_4_174">
<rect width="20" height="20" fill="white"/>
</clipPath>
<clipPath id="clip1_4_174">
<rect width="20" height="20" fill="white"/>
</clipPath>
</defs>
</svg>

<svg xmlns="http://www.w3.org/2000/svg" width="20" height="20" fill="none" viewBox="0 0 20 20"><g clip-path="url(#a)"><g clip-path="url(#b)"><path fill="#3e9cdc" d="M16.412 13.456c.06.388-.067.552-.195.552s-.314-.158-.521-.47c-.207-.313-.278-.661-.178-.84a.3.3 0 0 1 .17-.126.3.3 0 0 1 .213.022c.341.124.475.63.51.862m-1.888.85c.41.335.535.733.318 1.013a.67.67 0 0 1-.549.238 1 1 0 0 1-.626-.218c-.372-.314-.481-.825-.238-1.114a.53.53 0 0 1 .434-.176c.245.008.479.099.661.257m-.684 3.23c1.762 0 3.674.585 5.791 2.4.212.18.493-.045.309-.27-2.08-2.54-4.008-3.025-5.922-3.433-2.346-.502-3.554-1.78-4.4-3.182-.166-.279-.242-.23-.257.13a7.7 7.7 0 0 0 .124 1.59H9.2a6.23 6.23 0 0 1-3.377-.992 5.93 5.93 0 0 1-2.238-2.639 5.7 5.7 0 0 1-.346-3.397A5.82 5.82 0 0 1 4.9 4.733a6.15 6.15 0 0 1 3.112-1.61 6.27 6.27 0 0 1 3.512.335 6.04 6.04 0 0 1 2.728 2.166 5.74 5.74 0 0 1 .986 3.95 9.4 9.4 0 0 0-1.93-.035c-.232.02-.198.13-.024.154 2.003.35 3.39 1.55 3.705 3.74a.05.05 0 0 0 .014.03.057.057 0 0 0 .063.014.06.06 0 0 0 .025-.021 8.66 8.66 0 0 0 1.24-5.608 8.78 8.78 0 0 0-2.554-5.176 9.3 9.3 0 0 0-5.29-2.59A9.46 9.46 0 0 0 4.665 1.15a9 9 0 0 0-3.94 4.286 8.63 8.63 0 0 0-.417 5.72 8.9 8.9 0 0 0 3.28 4.779 9.4 9.4 0 0 0 5.612 1.849c1.343.004 2.68-.25 4.641-.25z"/></g></g><defs><clipPath id="a"><path fill="#fff" d="M0 0h20v20H0z"/></clipPath><clipPath id="b"><path fill="#fff" d="M0 0h20v20H0z"/></clipPath></defs></svg>
